X:10
M:6/8
L:1/8
K:G
|: d | dgb d2d | cfa c2c | Beg B2B | A>BG FED | GDG BGB | def gfe | dBG cAF | (G3 G2) :|

